public/svgs/duplicate.svg

<svg viewBox="0 0 9.82 9.97" xmlns="http://www.w3.org/2000/svg"><path d="m8.77 2.7h-1.5v-1.65a1 1 0 0 0 -1-1h-5.22a1 1 0 0 0 -1.05 1v5.17a1 1 0 0 0 1.05 1h1.5v1.7a1.06 1.06 0 0 0 1.05 1.08h5.17a1.06 1.06 0 0 0 1.05-1.08v-5.17a1 1 0 0 0 -1.05-1.05zm-7.77 3.52.05-5.22 5.22.05v1.65h-2.67a1 1 0 0 0 -1.05 1v2.56zm7.77 2.78h-5.17l-.05-.05.05-5.25h5.22z" fill="#0e1c2a"/></svg>

<svg id="Layer_1" data-name="Layer 1" xmlns="http://www.w3.org/2000/svg" viewBox="0 0 9.82 9.97"><defs><style>.cls-1{fill:#0e1c2a;}</style></defs><path class="cls-1" d="M8.77,2.7H7.27V1.05a1,1,0,0,0-1-1H1.05A1,1,0,0,0,0,1.05V6.22a1,1,0,0,0,1.05,1h1.5V8.92A1.06,1.06,0,0,0,3.6,10H8.77A1.06,1.06,0,0,0,9.82,8.92V3.75A1,1,0,0,0,8.77,2.7ZM1,6.22,1.05,1l5.22.05V2.7H3.6a1,1,0,0,0-1.05,1V6.26ZM8.77,9H3.6l-.05-.05L3.6,3.7l5.22,0Z"/></svg>
